X: 3232
T: COME FY, LET'S A' TO THE BRIDAL
%R: slip-jig
B: James Kerr "Merry Melodies" v.3 p.26 #232
Z: 2016 John Chambers <jc:trillian.mit.edu>
M: 9/8
L: 1/8
K: A
|:\
vA2vA uA2uf ecA | B2B Bce (f2a) |\
A2A A2f ecA | B2B cBc F3 ::\
a2a aba gfe | c2e efc efg |\
a2a aba gfe | c2f fg^e f3 :|

%%sep 1 1 500
%%sep 1 1 500

